X:1
T:Title
%%score ( 1 2 ) { 3 | 4 }
L:1/8
Q:1/4=150
M:2/2
K:C
V:1 treble nm="Grand Piano, Soprano"
V:2 treble 
V:3 bass nm="Choir Pad, Hamul, Lowell Mason, 1839"
V:4 bass 
V:1
 G2 c4 E2- | E2 A6 | F2 D4 G2- | G2 C2 C2 D2 | E2 F6 | E2 D4 [D^F]2- | [DF]2 [DG]6 | %7
w: By~Lowell~Mason,~1839 * *|||||||
 [EG]2 [EG]2 [FA]2 [EG]2 | [DF]2 [CE]4 [Ec]2 | [GB]2 [FA]2 [EG]2 [DF]2 | [CE]2 [CE]4 [B,D]2 | %11
w: ||||
 [CE]2 [CA]2- [CA][FA] [FA]2 | [FA]2 [Fc]4 [FA]2- | [FA]2 [EG]2 [Ec]2 [Fc]2 | [Gc]2 [Ac]4 [Ac]2- | %15
w: ||||
 [Ac]2 [Gc]4 B2- | [FB]2 [Ec]6- | [Ec]8 |] %18
w: |||
V:2
 x8 | x8 | x8 | x8 | x8 | x8 | x8 | x8 | x8 | x8 | x8 | x8 | x8 | x8 | x8 | z4 z2 G2 | x8 | x8 |] %18
V:3
 G,2 C4 E,2- | E,2 A,6 | F,2 D,4 G,2- | G,2 C,2 C,2 D,2 | E,2 F,6 | E,2 D,4 A,2- | A,2 B,6 | z8 | %8
 z8 | z8 | z8 | C2 C2- CC C2 | C2 C4 C2- | C2 C2 C2 C2 | C2 C4 _E2- | E2 =E4 D2- | D2 C6- | C8 |] %18
V:4
 z8 | z8 | z8 | z8 | z8 | z4 z2 D,2- | D,2 G,,6 | z8 | z8 | z8 | z8 | C,2 F,2- F,F, F,2 | %12
 F,2 A,4 F,2- | F,2 C,2 C,2 D,2 | E,2 F,4 ^F,2- | F,2 G,4 G,,2- | G,,2 C,6- | C,8 |] %18

